TMultiGraph/c2.svg

<svg xmlns="http://www.w3.org/2000/svg" viewBox="0 0 598 374" preserveAspectRatio="none" width="598" height="374">
 <path d="M0,0H598V374H0Z" style="fill: white;"></path>
 <g>
  <g transform="translate(60,37)">
   <path d="M0,0H478V299H0Z" style="fill: white; stroke: black; stroke-width: 1;"></path>
   <svg x="0" y="0" overflow="hidden" width="478" height="299" viewBox="0 0 478 299">
    <g>
     <g transform="translate(35,250)">
      <path style="stroke: black; stroke-width: 1; fill: none;" d="M0,0H-14m0,3v-6M0,0H14m0,3v-6M0,0V23m3,0h-6M0,0V-23m3,0h-6"></path>
     </g>
     <g transform="translate(307,103)">
      <path style="stroke: black; stroke-width: 1; fill: none;" d="M0,0H-14m0,3v-6M0,0H14m0,3v-6M0,0V15m3,0h-6M0,0V-15m3,0h-6"></path>
     </g>
     <path d="M31,246v8h8v-8zM303,99v8h8v-8z" style="stroke: red; fill: red;"></path>
    </g>
    <g>
     <g transform="translate(171,165)">
      <path style="stroke: black; stroke-width: 1; fill: none;" d="M0,0H-14m0,3v-6M0,0H14m0,3v-6M0,0V23m3,0h-6M0,0V-23m3,0h-6"></path>
     </g>
     <g transform="translate(443,41)">
      <path style="stroke: black; stroke-width: 1; fill: none;" d="M0,0H-14m0,3v-6M0,0H14m0,3v-6M0,0V15m3,0h-6M0,0V-15m3,0h-6"></path>
     </g>
     <path d="M171,161l-4,8h8zM443,37l-4,8h8z" style="stroke: green; fill: green;"></path>
    </g>
    <g>
     <path d="M0,260l5,-3l5,-2l5,-2l4,-3l5,-2l5,-3l5,-2l5,-2l4,-3l5,-2l5,-3l5,-2l5,-2l4,-3l5,-2l5,-3l5,-2l4,-2l5,-3l5,-2l5,-3l5,-2l4,-2l5,-3l5,-2l5,-3l4,-2l5,-2l5,-3l5,-2l5,-3l4,-2l5,-2l5,-3l5,-2l4,-2l5,-3l5,-2l5,-3l5,-2l4,-2l5,-3l5,-2l5,-3l4,-2l5,-2l5,-3l5,-2l5,-3l4,-2l5,-2l5,-3l5,-2l5,-3l4,-2l5,-2l5,-3l5,-2l4,-3l5,-2l5,-2l5,-3l5,-2l4,-3l5,-2l5,-2l5,-3l4,-2l5,-2l5,-3l5,-2l5,-3l4,-2l5,-2l5,-3l5,-2l4,-3l5,-2l5,-2l5,-3l5,-2l4,-3l5,-2l5,-2l5,-3l4,-2l5,-3l5,-2l5,-2l5,-3l4,-2l5,-3l5,-2l5,-2l5,-3l4,-2l5,-3l5,-2l5,-2l4,-3" style="fill: none; stroke: red; stroke-width: 2;"></path>
    </g>
   </svg>
   <g>
    <g transform="translate(0,299)">
     <path d="M0,0h478M8,-6V0M22,-6V0M35,-11V0M49,-6V0M62,-6V0M76,-6V0M90,-6V0M103,-11V0M117,-6V0M130,-6V0M144,-6V0M158,-6V0M171,-11V0M185,-6V0M198,-6V0M212,-6V0M225,-6V0M239,-11V0M253,-6V0M266,-6V0M280,-6V0M293,-6V0M307,-11V0M320,-6V0M334,-6V0M348,-6V0M361,-6V0M375,-11V0M388,-6V0M402,-6V0M416,-6V0M429,-6V0M443,-11V0M456,-6V0M470,-6V0" style="stroke: black; stroke-width: 1;"></path>
     <g font-family="Arial" font-size="13" space="preserve" fill="black" text-anchor="middle">
      <text dy=".8em" transform="translate(35,1)">
       2
      </text>
      <text dy=".8em" transform="translate(103,1)">
       2.5
      </text>
      <text dy=".8em" transform="translate(171,1)">
       3
      </text>
      <text dy=".8em" transform="translate(239,1)">
       3.5
      </text>
      <text dy=".8em" transform="translate(307,1)">
       4
      </text>
      <text dy=".8em" transform="translate(375,1)">
       4.5
      </text>
      <text dy=".8em" transform="translate(443,1)">
       5
      </text>
     </g>
    </g>
    <g>
     <path d="M0,0v299M18,296H0M9,288H0M9,281H0M9,273H0M9,265H0M18,258H0M9,250H0M9,242H0M9,234H0M9,227H0M18,219H0M9,211H0M9,204H0M9,196H0M9,188H0M18,180H0M9,173H0M9,165H0M9,157H0M9,150H0M18,142H0M9,134H0M9,126H0M9,119H0M9,111H0M18,103H0M9,95H0M9,88H0M9,80H0M9,72H0M18,65H0M9,57H0M9,49H0M9,41H0M9,34H0M18,26H0M9,18H0M9,11H0M9,3H0" style="stroke: black; stroke-width: 1;"></path>
     <g font-family="Arial" font-size="13" space="preserve" fill="black" text-anchor="end">
      <text dy=".4em" transform="translate(-2,296)">
       1.5
      </text>
      <text dy=".4em" transform="translate(-2,258)">
       2
      </text>
      <text dy=".4em" transform="translate(-2,219)">
       2.5
      </text>
      <text dy=".4em" transform="translate(-2,180)">
       3
      </text>
      <text dy=".4em" transform="translate(-2,142)">
       3.5
      </text>
      <text dy=".4em" transform="translate(-2,103)">
       4
      </text>
      <text dy=".4em" transform="translate(-2,65)">
       4.5
      </text>
      <text dy=".4em" transform="translate(-2,26)">
       5
      </text>
     </g>
    </g>
   </g>
  </g>
 </g>
</svg>

<svg xmlns="http://www.w3.org/2000/svg" viewBox="0 0 598 374" preserveAspectRatio="none" width="598" height="374">
 <path d="M0,0H598V374H0Z" style="fill: white;"></path>
 <g>
  <g transform="translate(60,37)">
   <path d="M0,0H478V299H0Z" style="fill: white; stroke: black; stroke-width: 1;"></path>
   <svg x="0" y="0" overflow="hidden" width="478" height="299" viewBox="0 0 478 299">
    <g>
     <g transform="translate(35,250)">
      <path style="stroke: black; stroke-width: 1; fill: none;" d="M0,0H-14m0,3v-6M0,0H14m0,3v-6M0,0V23m3,0h-6M0,0V-23m3,0h-6"></path>
     </g>
     <g transform="translate(307,103)">
      <path style="stroke: black; stroke-width: 1; fill: none;" d="M0,0H-14m0,3v-6M0,0H14m0,3v-6M0,0V15m3,0h-6M0,0V-15m3,0h-6"></path>
     </g>
     <path d="M31,246v8h8v-8zM303,99v8h8v-8z" style="stroke: red; fill: red;"></path>
    </g>
    <g>
     <g transform="translate(171,165)">
      <path style="stroke: black; stroke-width: 1; fill: none;" d="M0,0H-14m0,3v-6M0,0H14m0,3v-6M0,0V23m3,0h-6M0,0V-23m3,0h-6"></path>
     </g>
     <g transform="translate(443,41)">
      <path style="stroke: black; stroke-width: 1; fill: none;" d="M0,0H-14m0,3v-6M0,0H14m0,3v-6M0,0V15m3,0h-6M0,0V-15m3,0h-6"></path>
     </g>
     <path d="M171,161l-4,8h8zM443,37l-4,8h8z" style="stroke: green; fill: green;"></path>
    </g>
    <g>
     <path d="M0,260L5,257L10,255L15,253L19,250L24,248L29,245L34,243L39,241L43,238L48,236L53,233L58,231L63,229L67,226L72,224L77,221L82,219L86,217L91,214L96,212L101,209L106,207L110,205L115,202L120,200L125,197L129,195L134,193L139,190L144,188L149,185L153,183L158,181L163,178L168,176L172,174L177,171L182,169L187,166L192,164L196,162L201,159L206,157L211,154L215,152L220,150L225,147L230,145L235,142L239,140L244,138L249,135L254,133L259,130L263,128L268,126L273,123L278,121L282,118L287,116L292,114L297,111L302,109L306,106L311,104L316,102L321,99L325,97L330,95L335,92L340,90L345,87L349,85L354,83L359,80L364,78L368,75L373,73L378,71L383,68L388,66L392,63L397,61L402,59L407,56L411,54L416,51L421,49L426,47L431,44L435,42L440,39L445,37L450,35L455,32L459,30L464,27L469,25L474,23L478,20" style="fill: none; stroke: red; stroke-width: 2;"></path>
    </g>
   </svg>
   <g>
    <g transform="translate(0,299)">
     <path d="M0,0h478M8,-6V0M22,-6V0M35,-11V0M49,-6V0M62,-6V0M76,-6V0M90,-6V0M103,-11V0M117,-6V0M130,-6V0M144,-6V0M158,-6V0M171,-11V0M185,-6V0M198,-6V0M212,-6V0M225,-6V0M239,-11V0M253,-6V0M266,-6V0M280,-6V0M293,-6V0M307,-11V0M320,-6V0M334,-6V0M348,-6V0M361,-6V0M375,-11V0M388,-6V0M402,-6V0M416,-6V0M429,-6V0M443,-11V0M456,-6V0M470,-6V0" style="stroke: black; stroke-width: 1;"></path>
     <g font-family="Arial" font-size="13" space="preserve" fill="black" text-anchor="middle">
      <text dy=".8em" transform="translate(35,1)">
       2
      </text>
      <text dy=".8em" transform="translate(103,1)">
       2.5
      </text>
      <text dy=".8em" transform="translate(171,1)">
       3
      </text>
      <text dy=".8em" transform="translate(239,1)">
       3.5
      </text>
      <text dy=".8em" transform="translate(307,1)">
       4
      </text>
      <text dy=".8em" transform="translate(375,1)">
       4.5
      </text>
      <text dy=".8em" transform="translate(443,1)">
       5
      </text>
     </g>
    </g>
    <g>
     <path d="M0,0v299M18,296H0M9,288H0M9,281H0M9,273H0M9,265H0M18,258H0M9,250H0M9,242H0M9,234H0M9,227H0M18,219H0M9,211H0M9,204H0M9,196H0M9,188H0M18,180H0M9,173H0M9,165H0M9,157H0M9,150H0M18,142H0M9,134H0M9,126H0M9,119H0M9,111H0M18,103H0M9,95H0M9,88H0M9,80H0M9,72H0M18,65H0M9,57H0M9,49H0M9,41H0M9,34H0M18,26H0M9,18H0M9,11H0M9,3H0" style="stroke: black; stroke-width: 1;"></path>
     <g font-family="Arial" font-size="13" space="preserve" fill="black" text-anchor="end">
      <text dy=".4em" transform="translate(-2,296)">
       1.5
      </text>
      <text dy=".4em" transform="translate(-2,258)">
       2
      </text>
      <text dy=".4em" transform="translate(-2,219)">
       2.5
      </text>
      <text dy=".4em" transform="translate(-2,180)">
       3
      </text>
      <text dy=".4em" transform="translate(-2,142)">
       3.5
      </text>
      <text dy=".4em" transform="translate(-2,103)">
       4
      </text>
      <text dy=".4em" transform="translate(-2,65)">
       4.5
      </text>
      <text dy=".4em" transform="translate(-2,26)">
       5
      </text>
     </g>
    </g>
   </g>
  </g>
 </g>
</svg>
